packages/core/src/svgs/tokens/branded/CONE.svg

<svg width="24" height="24" viewBox="0 0 24 24" fill="none" xmlns="http://www.w3.org/2000/svg">
<path d="M3.214 7.22018C3.69397 6.98019 4.21394 7.12019 4.41393 7.22018C4.61392 6.8152 5.1889 6.00024 5.90885 6.00024C6.62382 6.00024 6.60882 6.61022 6.50883 6.91519L6.80881 6.61521H7.99875L8.8987 7.53017L9.19868 7.22018H10.3936L10.6936 8.14013C10.7937 7.94015 11.1135 7.53017 11.5936 7.53017C12.0685 7.53017 12.3885 7.73016 12.4885 7.83015C12.5885 7.73016 12.9085 7.53017 13.3884 7.53017C13.8635 7.53017 14.3834 8.34512 14.5834 8.7501C14.7834 8.24013 15.3583 7.22018 16.0784 7.22018C16.7933 7.22018 17.3733 8.03513 17.5733 8.44511C17.7732 8.14013 18.2882 7.53017 18.7732 7.53017C19.2482 7.53017 19.5682 8.14013 19.6681 8.44511C19.7491 8.27166 19.8754 8.12335 20.034 8.01596C20.1924 7.90857 20.377 7.84608 20.5681 7.83515C21.518 7.83515 21.558 9.05508 21.4631 9.66505C20.983 12.8449 19.6631 13.6398 19.0631 13.6398C18.9682 14.5548 18.7682 16.5147 18.7682 16.9997C18.7682 17.6147 18.4682 18.2246 16.9733 17.9196C15.4784 17.6147 7.40378 17.3046 5.90885 17.6147C4.70892 17.8597 4.40893 17.3096 4.40893 16.9997L3.80896 12.4199C3.70896 12.4199 3.39398 12.3549 2.91401 12.1099C2.43903 11.87 2.91401 11.195 3.214 10.89C3.11401 10.175 2.85402 8.6901 2.61402 8.44511C2.31404 8.14013 2.61402 7.53017 3.214 7.22018Z" fill="#3A1704"/>
<path d="M11.0736 7.70019C10.9141 7.81494 10.784 7.96568 10.6936 8.14016L10.3936 7.22021H9.19368L8.8937 7.5302L7.99875 6.61025H6.80381L6.50383 6.91522C6.55383 6.75523 6.58883 6.51025 6.50383 6.31526L6.46382 6.24526C6.36883 6.10527 6.19884 6.00028 5.90886 6.00028C5.2239 6.00028 4.66892 6.73524 4.44394 7.16021L4.40893 7.22021L4.38893 7.21021C4.20398 7.12697 4.0032 7.08475 3.80037 7.08648C3.59756 7.08821 3.39751 7.13383 3.214 7.22021C2.61403 7.5302 2.31404 8.14016 2.61403 8.44514C2.85402 8.69013 3.11401 10.175 3.214 10.8901C2.91402 11.195 2.43903 11.87 2.91402 12.11C3.39398 12.36 3.71397 12.4199 3.81397 12.4199L4.41393 16.9997C4.41393 17.3097 4.71392 17.8597 5.90886 17.6147C7.40378 17.3097 15.4784 17.6147 16.9733 17.9147C18.4732 18.2246 18.7732 17.6147 18.7732 16.9997C18.7732 16.5147 18.9682 14.5548 19.0682 13.6399C19.6681 13.6399 20.983 12.8449 21.4631 9.66509C21.5631 9.05512 21.523 7.83518 20.563 7.83518C20.3729 7.8435 20.189 7.90595 20.0332 8.01517C19.8761 8.12434 19.7504 8.27253 19.6681 8.44514C19.6055 8.26143 19.5162 8.08792 19.4032 7.93017C19.2431 7.71018 19.0332 7.5302 18.7682 7.5302C18.4682 7.5302 18.1532 7.77018 17.9132 8.02017C17.7632 8.17016 17.6483 8.33015 17.5733 8.44514C17.4911 8.2831 17.3941 8.12911 17.2833 7.98517C17.0033 7.61019 16.5733 7.22021 16.0784 7.22021C15.5734 7.22021 15.1334 7.72518 14.8534 8.20516C14.7334 8.40515 14.6384 8.60014 14.5834 8.75513C14.4917 8.57089 14.3865 8.39374 14.2684 8.22516C14.0234 7.87518 13.6935 7.52519 13.3835 7.52519C13.0558 7.51583 12.7359 7.62601 12.4835 7.83518C12.4835 7.83018 12.4835 7.82517 12.4736 7.82018C12.2223 7.62161 11.9086 7.51882 11.5886 7.5302C11.3886 7.5302 11.2136 7.6002 11.0736 7.70019ZM10.9136 7.21021C11.0986 7.10522 11.3285 7.03023 11.5886 7.03023C11.9001 7.02589 12.2082 7.09437 12.4885 7.23021C12.7688 7.09437 13.0771 7.02589 13.3884 7.03023C13.6434 7.03023 13.8685 7.13522 14.0284 7.25021C14.2252 7.39078 14.3991 7.56115 14.5434 7.75518L14.7434 7.4802C15.0284 7.13022 15.4834 6.72024 16.0784 6.72024C16.6283 6.72024 17.0682 7.03023 17.3683 7.32021C17.4582 7.41521 17.5433 7.51019 17.6183 7.60519L17.7332 7.50019C17.9683 7.2902 18.3332 7.03023 18.7682 7.03023C18.967 7.03903 19.161 7.09427 19.3346 7.19151C19.5083 7.28875 19.6567 7.42529 19.7681 7.5902C20.0632 7.3952 20.3681 7.3352 20.5681 7.3352C20.918 7.3352 21.223 7.4502 21.4581 7.66519C21.683 7.86518 21.808 8.13016 21.8881 8.37515C22.038 8.85512 22.013 9.3951 21.9531 9.74503C21.7031 11.3899 21.233 12.47 20.703 13.1549C20.4072 13.5638 19.9991 13.8782 19.5281 14.0598C19.4181 15.0599 19.2681 16.5998 19.2681 16.9997C19.2681 17.3697 19.1782 17.8797 18.7282 18.2097C18.2932 18.5247 17.6682 18.5696 16.8783 18.4096C16.5383 18.3396 15.7884 18.2646 14.7883 18.1997C12.5499 18.0534 10.3071 17.9833 8.06374 17.9897C7.0638 17.9997 6.32383 18.0396 6.00885 18.1047C5.33889 18.2397 4.81392 18.1747 4.43893 17.9346C4.28602 17.8386 4.15848 17.7071 4.0671 17.5513C3.97573 17.3955 3.9232 17.2201 3.91396 17.0397L3.36399 12.8399C3.174 12.78 2.94401 12.6899 2.68903 12.5549C2.43903 12.43 2.27405 12.215 2.22405 11.945C2.18405 11.7099 2.24405 11.4949 2.30905 11.335C2.40404 11.11 2.54903 10.9 2.68402 10.735C2.63403 10.4001 2.56404 9.9801 2.48404 9.60008C2.42347 9.32907 2.34667 9.06193 2.25405 8.80013C2.24932 8.79164 2.24432 8.7833 2.23904 8.77513C1.90406 8.41015 1.97406 7.93517 2.12906 7.61519C2.29405 7.27521 2.60403 6.97522 2.98901 6.77523C3.3591 6.59222 3.78011 6.53938 4.18395 6.62524C4.29894 6.45525 4.44393 6.27026 4.61393 6.10027C4.91391 5.81028 5.35889 5.50031 5.90886 5.50031C6.15884 5.50031 6.38883 5.55029 6.58382 5.68029C6.76382 5.79528 6.8838 5.95028 6.9588 6.11026H8.20874L8.8987 6.81023L8.9887 6.72024H10.7587L10.9136 7.21021Z" fill="#F0F3FA"/>
<path fill-rule="evenodd" clip-rule="evenodd" d="M18.6984 13.6148L18.4083 16.3147C18.4083 16.7146 18.2883 17.5145 17.8134 17.5145C17.6233 17.5145 17.2234 17.4546 16.6735 17.3745C15.0921 17.1032 13.4927 16.9511 11.8886 16.9196C10.6788 16.9196 9.21881 17.0396 7.95888 17.1496C6.45896 17.2796 5.23902 17.3795 5.07903 17.2196C4.89404 17.0346 4.82405 16.6196 4.72905 16.0446C4.66905 15.6897 4.59905 15.2746 4.48406 14.8148C4.24907 13.8548 4.18408 13.2148 4.18408 13.0148C4.48406 13.0148 5.13403 12.8899 5.37402 12.4148C5.57401 12.7149 6.08398 13.2498 6.55895 13.0148C7.03394 12.7698 7.34891 12.1149 7.44891 11.8098C7.6489 12.1099 8.09887 12.7099 8.33386 12.7099C8.63384 12.7099 9.81874 12.7099 10.1138 12.4098C10.3487 12.1698 10.6088 11.7098 10.7037 11.5099H11.0038C11.1038 11.8098 11.4137 12.4098 11.8886 12.4098C12.3637 12.4098 12.6787 11.8098 12.7787 11.5099C12.8786 11.8098 13.1936 12.4098 13.6685 12.4098C14.1436 12.4098 14.4586 11.8098 14.5535 11.5099C14.6535 11.8098 15.0286 12.4098 15.7384 12.4098C16.2903 12.3987 16.8187 12.1852 17.2234 11.8098V12.1099C17.2234 12.5098 17.3884 13.0948 17.8134 13.3098C18.4083 13.6098 18.7034 13.6098 18.7034 13.6098L18.6984 13.6148ZM10.4988 14.9997C10.6587 14.9997 10.9988 14.9147 10.9988 14.4998C10.9988 14.0847 10.6587 13.9998 10.4988 13.9998C10.3388 13.9998 9.99875 14.0847 9.99875 14.4998C9.99875 14.9147 10.3388 14.9997 10.4988 14.9997ZM10.4988 15.9997C11.2337 15.9997 11.7837 15.2797 11.7837 14.4648C11.7837 13.6548 11.2337 12.9998 10.4988 12.9998C9.76379 12.9998 9.12882 13.6548 9.12882 14.4648C9.12882 15.2797 9.76379 15.9997 10.4988 15.9997ZM13.4986 14.9997C13.6586 14.9997 13.9986 14.8797 13.9986 14.4648C13.9986 14.0547 13.6586 13.9998 13.4986 13.9998C13.3386 13.9998 12.9987 14.0847 12.9987 14.4998C12.9987 14.9147 13.3386 14.9997 13.4986 14.9997ZM13.4986 15.9997C14.2335 15.9997 14.7486 15.3096 14.7486 14.4998C14.7486 13.6898 14.2335 12.9998 13.4986 12.9998C12.7636 12.9998 12.2487 13.6898 12.2487 14.4998C12.2487 15.3096 12.7636 15.9997 13.4986 15.9997ZM16.9234 14.9097C16.8734 15.3197 16.4034 15.2697 16.2435 15.2497C16.1735 15.2396 16.1785 15.2347 16.2284 14.8197C16.2535 14.6348 16.2885 14.3397 16.3535 14.3747C16.5134 14.3948 16.9734 14.4998 16.9234 14.9097ZM17.9833 15.0397C17.8834 15.8446 17.2134 16.4247 16.4834 16.3346L15.4585 16.2047C15.3819 16.1946 15.3123 16.155 15.2646 16.0942C15.217 16.0335 15.195 15.9564 15.2036 15.8796L15.2685 15.3446L15.3485 14.7147L15.4985 13.5498C15.5085 13.4722 15.5489 13.4018 15.6107 13.3539C15.6725 13.3061 15.7509 13.2849 15.8285 13.2948L16.8534 13.4197C17.5784 13.5098 18.0883 14.2397 17.9833 15.0397ZM5.79899 13.3248L5.06903 13.5647C5.04974 13.572 5.03313 13.5849 5.02149 13.602C5.00986 13.619 5.00376 13.6392 5.00403 13.6598C5.02903 14.5597 5.554 15.8346 5.854 16.4446C5.86459 16.4648 5.88176 16.4808 5.90268 16.4899C5.9236 16.499 5.94699 16.5006 5.96899 16.4947L6.75394 16.2346C6.76728 16.2289 6.77923 16.2204 6.78894 16.2097L7.01893 15.9846C7.03359 15.9697 7.05258 15.9597 7.0732 15.9562C7.09384 15.9526 7.11507 15.9555 7.13393 15.9647L7.6239 16.2097C7.6439 16.2196 7.6739 16.2246 7.69889 16.2147L8.46886 15.9597C8.48988 15.952 8.50771 15.9374 8.51949 15.9184C8.53129 15.8994 8.53634 15.877 8.53385 15.8547L8.25886 13.3798C8.25526 13.3559 8.24313 13.3342 8.22476 13.3186C8.20639 13.303 8.18298 13.2946 8.15887 13.2948H7.46391C7.43738 13.2948 7.41195 13.3053 7.3932 13.3241C7.37444 13.3429 7.36391 13.3683 7.36391 13.3948V14.3047C7.36403 14.3219 7.35975 14.3388 7.35147 14.3537C7.3432 14.3688 7.33121 14.3814 7.31665 14.3904C7.3021 14.3995 7.28547 14.4046 7.26835 14.4053C7.25124 14.4061 7.23422 14.4025 7.21892 14.3948L6.86394 14.2198C6.85213 14.2137 6.83926 14.2101 6.82606 14.2092C6.81286 14.2082 6.7996 14.2099 6.78704 14.2141C6.77448 14.2182 6.76289 14.2248 6.75291 14.2336C6.74294 14.2423 6.7348 14.2528 6.72895 14.2647L6.57895 14.5648C6.57048 14.5827 6.55683 14.5978 6.53976 14.6079C6.52268 14.6182 6.50296 14.6231 6.4831 14.6219C6.46323 14.6209 6.44415 14.6139 6.42827 14.602C6.41239 14.59 6.40045 14.5735 6.39396 14.5547L5.92399 13.3798C5.91401 13.3565 5.89555 13.3378 5.87235 13.3276C5.84913 13.3174 5.82292 13.3164 5.79899 13.3248Z" fill="url(#paint0_linear_364_2944)"/>
<path fill-rule="evenodd" clip-rule="evenodd" d="M3.59924 7.50013C3.12427 7.50013 2.99927 8.0001 2.99927 8.20009C3.23926 8.68507 3.49924 10.205 3.59924 10.9099C3.29926 11.21 3.29926 11.5099 3.29926 11.8099C3.29926 12.0499 3.69923 12.1099 3.89423 12.1099C4.18921 12.7099 4.48419 12.7099 4.77918 12.7099C5.01916 12.7099 4.87917 11.91 4.77918 11.5099L5.37415 11.21C5.67413 12.4098 6.26411 12.7099 6.55908 12.7099C6.79407 12.7099 6.85906 12.1099 6.85906 11.8099C6.85906 11.6099 6.79407 11.21 6.55908 11.21C6.2591 11.21 5.96411 10.61 5.96411 10.31C5.96411 10.065 6.16411 9.41004 6.26411 9.11004C6.04911 8.89006 6.14411 8.36009 6.21411 7.97011C6.23911 7.82012 6.26411 7.69012 6.26411 7.60512C6.26411 7.30514 6.04411 6.50018 5.74913 6.50018C5.44914 6.50018 5.07916 6.70017 4.77918 7.30014C4.54419 7.78512 5.07916 9.30504 5.37415 10.005L4.77918 10.3049C4.67918 9.60502 4.48419 8.1451 4.48419 7.90511C4.48419 7.60512 4.18421 7.50013 3.59424 7.50013H3.59924ZM7.14906 9.50003H6.55908L6.2591 10.005L6.55908 10.5H7.14906L7.44904 10.005L7.14906 9.50003ZM6.99906 7.00015H7.99901L8.49899 8.0001L7.99901 9.00005H6.99906L6.49908 8.0001L6.99906 7.00015ZM9.24895 7.50013L8.74897 8.25009L9.24895 9.00005H9.99888L10.4989 8.25009L9.99888 7.50013H9.24895ZM10.2489 9.50003L10.7039 9.00005H11.2988L11.7488 9.50003L11.2988 10.005H10.6988L10.2489 9.50003ZM7.99901 9.50003L7.24905 11L7.99901 11.9999H9.49893L10.2489 11L9.49893 9.50003H7.99901ZM10.9989 8.20009C11.1988 7.90011 11.7138 7.48514 12.1838 8.20009V8.80506C12.2838 8.50508 12.5238 8.0001 12.9988 8.0001C13.5888 8.0001 13.9987 8.20009 13.9987 9.40503V11.205C13.9987 11.4049 13.9837 11.9999 13.7487 11.9999C13.2487 11.9999 12.9988 11.35 12.9988 10.75V10.43C13.0137 9.84506 13.0288 9.15504 12.7788 9.40503C12.6638 9.52503 12.5938 9.95006 12.5137 10.42C12.3938 11.1499 12.2488 11.9999 11.8888 11.9999C11.4139 11.9999 11.2988 11.0099 11.2988 10.61C11.5939 10.4099 12.1838 9.94504 12.1838 9.70997C12.1838 9.41003 11.2988 8.20509 10.9989 8.20509V8.20009ZM15.9986 11.9999C14.8137 11.9999 14.4987 10.51 14.4987 9.70507C14.4987 8.97505 15.1486 7.50013 16.0386 7.50013C16.7485 7.50013 17.1236 8.40008 17.2236 8.80506V9.70507C17.2236 9.94504 17.0236 10.205 16.9235 10.3049C17.2236 10.605 17.4786 11.9999 15.9986 11.9999ZM18.6985 7.90011C18.8984 8.0001 19.2985 8.26509 19.2985 8.50008C19.2985 8.61508 19.1734 8.85006 19.0334 9.11505C18.7985 9.57002 18.5185 10.115 18.7035 10.3049C18.8284 10.43 19.0034 10.09 19.2235 9.65002C19.5435 9.02506 19.9584 8.20009 20.4784 8.20009C21.3683 8.20009 21.0733 10.005 20.7783 10.9099C20.4784 11.8099 19.8884 13.3099 18.7035 13.3099C17.5185 13.3099 17.2236 12.4098 17.5185 12.1099C17.7035 11.9199 18.0084 12.0898 18.2785 12.2399C18.4435 12.3299 18.5935 12.4098 18.7035 12.4098C19.0034 12.4098 19.2935 11.8099 19.2935 11.21C19.0934 11.5099 18.5835 12.0499 18.1085 11.8099C17.5185 11.5099 17.2236 8.20509 18.7035 7.90511L18.6985 7.90011ZM16.0436 8.50008C15.8036 8.50008 15.7436 9.00505 15.7436 9.10505H16.3386C16.3386 9.00505 16.2786 8.50508 16.0386 8.50508L16.0436 8.50008ZM16.0436 10.9099C15.8036 10.9099 15.7436 10.51 15.7436 10.31H16.3386C16.3386 10.51 16.2786 10.9099 16.0386 10.9099H16.0436Z" fill="url(#paint1_linear_364_2944)"/>
<defs>
<linearGradient id="paint0_linear_364_2944" x1="12.0002" y1="5.5002" x2="11.4904" y2="17.1984" gradientUnits="userSpaceOnUse">
<stop offset="0.04" stop-color="#CD7B41"/>
<stop offset="0.26" stop-color="#DB995D"/>
<stop offset="0.36" stop-color="#C0733A"/>
<stop offset="0.6" stop-color="#D29957"/>
<stop offset="0.88" stop-color="#CE8447"/>
<stop offset="1" stop-color="#DC9555"/>
</linearGradient>
<linearGradient id="paint1_linear_364_2944" x1="3.00427" y1="8.87006" x2="21.0733" y2="10.0551" gradientUnits="userSpaceOnUse">
<stop stop-color="#FEA90F"/>
<stop offset="0.08" stop-color="#FFB917"/>
<stop offset="0.2" stop-color="#EE7B07"/>
<stop offset="0.34" stop-color="#F9F085"/>
<stop offset="0.45" stop-color="#F2A700"/>
<stop offset="0.58" stop-color="#FAA401"/>
<stop offset="0.69" stop-color="#FDB719"/>
<stop offset="0.83" stop-color="#FBA101"/>
<stop offset="0.92" stop-color="#EC9E00"/>
<stop offset="1" stop-color="#EE9D03"/>
</linearGradient>
</defs>
</svg>

<svg xmlns="http://www.w3.org/2000/svg" width="24" height="24" fill="none" viewBox="0 0 24 24">
    <path fill="#3A1704" d="M3.214 7.22c.48-.24 1-.1 1.2 0 .2-.405.775-1.22 1.495-1.22.715 0 .7.61.6.915l.3-.3h1.19l.9.915.3-.31h1.195l.3.92c.1-.2.42-.61.9-.61.475 0 .795.2.895.3.1-.1.42-.3.9-.3.475 0 .994.815 1.194 1.22.2-.51.775-1.53 1.495-1.53.715 0 1.295.815 1.495 1.225.2-.305.715-.915 1.2-.915.475 0 .795.61.895.915a1.06 1.06 0 0 1 .9-.61c.95 0 .99 1.22.895 1.83-.48 3.18-1.8 3.975-2.4 3.975-.095.915-.295 2.875-.295 3.36 0 .615-.3 1.225-1.795.92s-9.57-.615-11.064-.305c-1.2.245-1.5-.305-1.5-.615l-.6-4.58c-.1 0-.415-.065-.895-.31-.475-.24 0-.915.3-1.22-.1-.715-.36-2.2-.6-2.445-.3-.305 0-.915.6-1.225"/>
    <path fill="#F0F3FA" d="M11.074 7.7a1.25 1.25 0 0 0-.38.44l-.3-.92h-1.2l-.3.31-.895-.92H6.804l-.3.305c.05-.16.085-.405 0-.6l-.04-.07C6.369 6.105 6.199 6 5.909 6c-.685 0-1.24.735-1.465 1.16l-.035.06-.02-.01a1.4 1.4 0 0 0-1.175.01c-.6.31-.9.92-.6 1.225.24.245.5 1.73.6 2.445-.3.305-.775.98-.3 1.22.48.25.8.31.9.31l.6 4.58c0 .31.3.86 1.495.615 1.495-.305 9.57 0 11.064.3 1.5.31 1.8-.3 1.8-.915 0-.485.195-2.445.295-3.36.6 0 1.915-.795 2.395-3.975.1-.61.06-1.83-.9-1.83a1 1 0 0 0-.53.18 1.1 1.1 0 0 0-.365.43 2 2 0 0 0-.265-.515c-.16-.22-.37-.4-.635-.4-.3 0-.615.24-.855.49-.15.15-.265.31-.34.425a3 3 0 0 0-.29-.46c-.28-.375-.71-.765-1.205-.765-.505 0-.945.505-1.225.985-.12.2-.215.395-.27.55a4 4 0 0 0-.315-.53c-.245-.35-.575-.7-.885-.7a1.35 1.35 0 0 0-.9.31c0-.005 0-.01-.01-.015a1.35 1.35 0 0 0-.884-.29c-.2 0-.375.07-.515.17m-.16-.49c.185-.105.415-.18.675-.18a2 2 0 0 1 .9.2 2 2 0 0 1 .9-.2c.254 0 .48.105.64.22.196.14.37.311.514.505l.2-.275c.285-.35.74-.76 1.335-.76.55 0 .99.31 1.29.6q.136.143.25.285l.115-.105c.235-.21.6-.47 1.035-.47a1.27 1.27 0 0 1 1 .56c.295-.195.6-.255.8-.255.35 0 .655.115.89.33.225.2.35.465.43.71.15.48.125 1.02.065 1.37-.25 1.645-.72 2.725-1.25 3.41a2.6 2.6 0 0 1-1.175.905c-.11 1-.26 2.54-.26 2.94 0 .37-.09.88-.54 1.21-.435.315-1.06.36-1.85.2-.34-.07-1.09-.145-2.09-.21a99 99 0 0 0-6.724-.21c-1 .01-1.74.05-2.055.115-.67.135-1.195.07-1.57-.17a1.12 1.12 0 0 1-.525-.895l-.55-4.2a4 4 0 0 1-.675-.285.84.84 0 0 1-.465-.61c-.04-.235.02-.45.085-.61.095-.225.24-.435.375-.6a20 20 0 0 0-.2-1.135 7 7 0 0 0-.23-.8l-.015-.025c-.335-.365-.265-.84-.11-1.16.165-.34.475-.64.86-.84.37-.183.791-.236 1.195-.15.115-.17.26-.355.43-.525.3-.29.745-.6 1.295-.6.25 0 .48.05.675.18.18.115.3.27.375.43h1.25l.69.7.09-.09h1.77z"/>
    <path fill="url(#CONE__a)" fill-rule="evenodd" d="m18.698 13.615-.29 2.7c0 .4-.12 1.2-.595 1.2-.19 0-.59-.06-1.14-.14a32 32 0 0 0-4.784-.455c-1.21 0-2.67.12-3.93.23-1.5.13-2.72.23-2.88.07-.185-.185-.255-.6-.35-1.175-.06-.355-.13-.77-.245-1.23-.235-.96-.3-1.6-.3-1.8.3 0 .95-.125 1.19-.6.2.3.71.835 1.185.6.475-.245.79-.9.89-1.205.2.3.65.9.885.9.3 0 1.485 0 1.78-.3.235-.24.495-.7.59-.9h.3c.1.3.41.9.885.9s.79-.6.89-.9c.1.3.415.9.89.9s.79-.6.884-.9c.1.3.476.9 1.185.9a2.25 2.25 0 0 0 1.485-.6v.3c0 .4.165.985.59 1.2.595.3.89.3.89.3zM10.498 15c.16 0 .5-.085.5-.5s-.34-.5-.5-.5-.5.085-.5.5.34.5.5.5m0 1c.736 0 1.286-.72 1.286-1.535 0-.81-.55-1.465-1.285-1.465s-1.37.655-1.37 1.465c0 .815.635 1.535 1.37 1.535m3-1c.16 0 .5-.12.5-.535 0-.41-.34-.465-.5-.465s-.5.085-.5.5.34.5.5.5m0 1c.736 0 1.25-.69 1.25-1.5s-.514-1.5-1.25-1.5c-.734 0-1.25.69-1.25 1.5s.516 1.5 1.25 1.5m3.425-1.09c-.05.41-.52.36-.68.34-.07-.01-.064-.015-.015-.43.025-.185.06-.48.125-.445.16.02.62.125.57.535m1.06.13c-.1.805-.77 1.385-1.5 1.295l-1.024-.13a.295.295 0 0 1-.255-.325l.064-.535.08-.63.15-1.165a.296.296 0 0 1 .33-.255l1.025.125c.725.09 1.235.82 1.13 1.62M5.8 13.325l-.73.24a.1.1 0 0 0-.065.095c.025.9.55 2.175.85 2.785a.1.1 0 0 0 .115.05l.785-.26a.1.1 0 0 0 .035-.025l.23-.225a.1.1 0 0 1 .115-.02l.49.245c.02.01.05.015.075.005l.77-.255a.1.1 0 0 0 .065-.105L8.26 13.38a.1.1 0 0 0-.1-.085h-.695a.1.1 0 0 0-.1.1v.91a.1.1 0 0 1-.096.1.1.1 0 0 1-.05-.01l-.354-.175a.1.1 0 0 0-.077-.006.1.1 0 0 0-.058.05l-.15.3a.1.1 0 0 1-.096.058.1.1 0 0 1-.089-.067l-.47-1.175a.1.1 0 0 0-.125-.055" clip-rule="evenodd"/>
    <path fill="url(#CONE__b)" fill-rule="evenodd" d="M3.6 7.5c-.476 0-.6.5-.6.7.24.485.5 2.005.6 2.71-.3.3-.3.6-.3.9 0 .24.4.3.594.3.295.6.59.6.885.6.24 0 .1-.8 0-1.2l.595-.3c.3 1.2.89 1.5 1.185 1.5.235 0 .3-.6.3-.9 0-.2-.065-.6-.3-.6-.3 0-.595-.6-.595-.9 0-.245.2-.9.3-1.2-.215-.22-.12-.75-.05-1.14.025-.15.05-.28.05-.365 0-.3-.22-1.105-.515-1.105-.3 0-.67.2-.97.8-.235.485.3 2.005.595 2.705l-.595.3c-.1-.7-.295-2.16-.295-2.4 0-.3-.3-.405-.89-.405zm3.55 2h-.59l-.3.505.3.495h.59l.299-.495zM7 7h.999l.5 1-.5 1h-1l-.5-1zm2.249.5-.5.75.5.75h.75l.5-.75-.5-.75zm1 2 .455-.5h.595l.45.5-.45.505h-.6zm-2.25 0-.75 1.5.75 1h1.5l.75-1-.75-1.5zm3-1.3c.2-.3.715-.715 1.185 0v.605c.1-.3.34-.805.815-.805.59 0 1 .2 1 1.405v1.8c0 .2-.015.795-.25.795-.5 0-.75-.65-.75-1.25v-.32c.015-.585.03-1.275-.22-1.025-.115.12-.185.545-.265 1.015-.12.73-.265 1.58-.625 1.58-.475 0-.59-.99-.59-1.39.295-.2.885-.665.885-.9 0-.3-.885-1.505-1.185-1.505zm5 3.8c-1.185 0-1.5-1.49-1.5-2.295 0-.73.65-2.205 1.54-2.205.71 0 1.085.9 1.185 1.305v.9c0 .24-.2.5-.3.6.3.3.555 1.695-.925 1.695m2.7-4.1c.2.1.6.365.6.6 0 .115-.126.35-.266.615-.235.455-.515 1-.33 1.19.125.125.3-.215.52-.655.32-.625.735-1.45 1.255-1.45.89 0 .595 1.805.3 2.71-.3.9-.89 2.4-2.075 2.4-1.184 0-1.48-.9-1.184-1.2.184-.19.49-.02.76.13.165.09.314.17.424.17.3 0 .59-.6.59-1.2-.2.3-.71.84-1.184.6-.59-.3-.885-3.605.594-3.905zm-2.655.6c-.24 0-.3.505-.3.605h.595c0-.1-.06-.6-.3-.6zm0 2.41c-.24 0-.3-.4-.3-.6h.595c0 .2-.06.6-.3.6z" clip-rule="evenodd"/>
    <defs>
        <linearGradient id="CONE__a" x1="12" x2="11.49" y1="5.5" y2="17.198" gradientUnits="userSpaceOnUse">
            <stop offset=".04" stop-color="#CD7B41"/>
            <stop offset=".26" stop-color="#DB995D"/>
            <stop offset=".36" stop-color="#C0733A"/>
            <stop offset=".6" stop-color="#D29957"/>
            <stop offset=".88" stop-color="#CE8447"/>
            <stop offset="1" stop-color="#DC9555"/>
        </linearGradient>
        <linearGradient id="CONE__b" x1="3.004" x2="21.073" y1="8.87" y2="10.055" gradientUnits="userSpaceOnUse">
            <stop stop-color="#FEA90F"/>
            <stop offset=".08" stop-color="#FFB917"/>
            <stop offset=".2" stop-color="#EE7B07"/>
            <stop offset=".34" stop-color="#F9F085"/>
            <stop offset=".45" stop-color="#F2A700"/>
            <stop offset=".58" stop-color="#FAA401"/>
            <stop offset=".69" stop-color="#FDB719"/>
            <stop offset=".83" stop-color="#FBA101"/>
            <stop offset=".92" stop-color="#EC9E00"/>
            <stop offset="1" stop-color="#EE9D03"/>
        </linearGradient>
    </defs>
</svg>
